X: 071
M: 6/8
L: 1/8
K: A
e |\
cdc c2d | efe e2d | c2B A2G | AEC A,2c |\
|: e |\
cdc c2e | dfd B2d | BcB B2d | cec A2E |\
cdc c2B | ABA A2C | D2C B,2E | AEC A,2 :|

